X:1
T:E. O. Excell
T:Joseph Grigg
T:Ashamed of Jesus
%%score { ( 1 4 ) | ( 2 3 ) }
L:1/8
M:3/4
K:Bb
V:1 treble 
V:4 treble 
V:2 bass 
V:3 bass 
V:1
 z{/x} D | D>D D3 D | E>E E3 E | E>E E3 E | E>D D3 D | D>D D3 D | E>E E3 E | =E>E E3 E | E>D E3 E | %9
w: Je\-|sus, and shall it|ev\- er be A|mor\- tal man a\-|shamed of Thee? A\-|shamed of Thee, whom|an\- gels praise, Whose|glo\- ries shine thro'|end\- less days? A\-|
w: A\-|shamed of Je\- sus!|that dear Friend On|whom my hopes of|Heav'n de\- pend? No;|when I blush, be|this my shame, That|I no more re\-|vere His name. A\-|
 F>F G3 F | F>E E3 E | E>E F3 E | E>D D3 D | G>G F3 E | D>D F3 G | F>D D3 F | E>D D3 d | f>c c3 d | %18
w: shamed of Je\- sus!|soon\- er far Let|eve\- ning blush to|own a star; He|sheds the beams of|light di\- vine O'er|this be\- night\- ed|soul of mine. A\-|shamed of Je\- sus!|
w: shamed of Je\- sus!|yes, I may When|I've no guilt to|wash a\- way; No|tears to wipe, no|good to crave, No|fears to quell, no|soul to save. Till|then\- nor is my|
 c>B B3 d | f>c c>c d>c | f4- fD | D>D D3 D | E>E E3 E | E>E E3 E | E>E D3 z |] %25
w: just as soon Let|mid\- night be a\- shamed of|noon; * 'Tis|mid\- night with my|soul till He, Bright|Morn\- ing Star, bid|dark\- ness flee.|
w: boast\- ing vain\- Till|then I boast a Sav\- ior|slain; * And|oh, may this my|glo\- ry be, That|Christ is not a\-|shamed of me!|
V:2
 z F, | F,>G, B,3 G, | B,>G, A,3 G, | A,>C G,3 A, | G,>F, F,3 F, | F,>G, B,3 G, | B,>G, A,3 A, | %7
 C>G, A,3 B, | C>=B, C3 F, | D>D E3 D | D>E C3 F, | C>C D3 C | C>B, B,3 B, | B,>B, A,3 G, | %14
 F,>B, D3 E | D>F, F,3 D | C>B, B,3 F | E>E E3 F | E>D D3 F | E>E E>=E E>E | E4- EF, | %21
 F,>G, B,3 G, | B,>G, A,3 G, | F,>G, A,3 C | G,>A, B,3 z |] %25
V:3
 z z | B,,4 B,,2 | F,,4 F,,2 | F,,4 F,,2 | B,,4 B,,2 | B,,4 B,,2 | F,,4 F,,2 | C,4 C,2 | %8
w: |8 *|8 *|8 *|8 *|8 *|8 *|8 *|
 F,,4 F,,2 | B,,4 B,,2 | F,,4 F,,2 | F,,4 F,,2 | B,,4 B,,2 | E,,4 E,2 | B,,4 B,,2 | F,,4 F,,2 | %16
w: 8 *|8 *|8 *|8 *|8 *||8 *|8 *|
 B,,2 B,,3 B, | F,>F, F,3 F, | B,>B, B,3 B, | F,>F, F,>G, C>C | F,4- F, z | B,,4 B,,2 | F,,4 F,,2 | %23
w: 8 * *|||||8 *|8 *|
 F,,4 F,,2 | B,,2- B,,3 z |] %25
w: 8 *|8 8|
V:4
 x2 | x6 | x6 | x6 | x6 | x6 | x6 | x6 | x6 | x6 | x6 | x6 | x6 | x6 | x6 | x6 | E>D D3 B | %17
w: |||||||||||||||||
w: |||||||||||||||||
w: |||||||||||||||||
w: |||||||||||||||||
 A>A A3 A | F>F F3 B | A>A A>B B>B | A>B G>A F z | x6 | x6 | x6 | x6 |] %25
w: ||||||||
w: ||||||||
w: ||* * * Let mid- night|be a- shamed of moon;|||||
w: ||* * * Till then I|boast a Sav- ior slain'|||||

